src/raw/star-check/icon_32.svg

<svg width="32" height="32" viewBox="0 0 32 32" fill="none" xmlns="http://www.w3.org/2000/svg">
<path d="M30.3089 13.4827L30.6796 13.116C30.8253 12.9716 30.9265 12.7885 30.9714 12.5883C31.0162 12.3882 31.0028 12.1794 30.9326 11.9866C30.8625 11.7939 30.7386 11.6252 30.5756 11.5007C30.4126 11.3762 30.2173 11.301 30.0129 11.284L21.4262 10.4333L16.9716 1.6C16.8799 1.42107 16.7407 1.2709 16.5692 1.16603C16.3977 1.06117 16.2006 1.00568 15.9996 1.00568C15.7985 1.00568 15.6014 1.06117 15.4299 1.16603C15.2584 1.2709 15.1192 1.42107 15.0276 1.6L10.5662 10.4333L1.97956 11.284C1.77515 11.301 1.57988 11.3762 1.41688 11.5007C1.25388 11.6252 1.12997 11.7939 1.05982 11.9866C0.989681 12.1794 0.976239 12.3882 1.02109 12.5883C1.06594 12.7885 1.16721 12.9716 1.3129 13.116L8.37956 20.12L5.77156 29.6373C5.71796 29.8392 5.72381 30.0523 5.78843 30.2509C5.85304 30.4495 5.97366 30.6252 6.13577 30.7569C6.29789 30.8886 6.4946 30.9707 6.70225 30.9932C6.90989 31.0158 7.11963 30.9778 7.30623 30.884L12.2186 28.4508" stroke="#71717A" stroke-width="1.5" stroke-linecap="round" stroke-linejoin="round"/>
<path d="M23 31C27.4183 31 31 27.4183 31 23C31 18.5817 27.4183 15 23 15C18.5817 15 15 18.5817 15 23C15 27.4183 18.5817 31 23 31Z" stroke="#71717A" stroke-width="1.5" stroke-linecap="round" stroke-linejoin="round"/>
<path d="M19.1836 23.9467L21.1836 25.9467C21.2852 26.0477 21.4072 26.1257 21.5415 26.1756C21.6758 26.2255 21.8193 26.246 21.9622 26.2357C22.1051 26.2255 22.2441 26.1848 22.3699 26.1163C22.4957 26.0478 22.6054 25.9531 22.6916 25.8387L26.5429 20.704" stroke="#71717A" stroke-width="1.5" stroke-linecap="round" stroke-linejoin="round"/>
</svg>

<svg xmlns="http://www.w3.org/2000/svg" width="32" height="32" fill="none" viewBox="0 0 32 32">
  <path stroke="#3F3F46" stroke-linecap="round" stroke-linejoin="round" stroke-width="2"
    d="m30.31 13.482.37-.366a1.073 1.073 0 0 0-.666-1.832l-8.587-.851L16.973 1.6a1.092 1.092 0 0 0-1.944 0l-4.462 8.833-8.586.85a1.074 1.074 0 0 0-.667 1.833L8.38 20.12l-2.608 9.517a1.084 1.084 0 0 0 1.534 1.247l4.87-2.413" />
  <path stroke="#3F3F46" stroke-linecap="round" stroke-linejoin="round" stroke-width="2"
    d="M23 31a8 8 0 1 0 0-16 8 8 0 0 0 0 16Z" />
  <path stroke="#3F3F46" stroke-linecap="round" stroke-linejoin="round" stroke-width="2"
    d="m19.184 23.947 2 2a1.002 1.002 0 0 0 1.508-.108l3.79-5.054" />
</svg>
